!!!OTL: DER MORGEN TAGT HINAUS ZUR JAGD
!!!ARE: Europa, Mitteleuropa, Deutschland
!!!SCT: F0635
!!!YEM: Copyright 1995, estate of Helmut Schaffrath.
**kern
*ICvox
*Ivox
*M6/8
*k[b-e-a-]
*E-:
{8e-
=1
4e-
8B-
4B-
8g
=2
4g
8e-
4e-}
{8e-
=3
4f
8f
8f
8e-
8f
=4
[4.g
8g]
8r}
{8g
=5
4f
8e-
8d
8e-
8f
=6
4.g
8e-
8r}
{8g
=7
4f
8e-
8d
8e-
8f
=8
4.g
8e-
8r}
{8e-
=9
4e-
8e-
8f
8e-
8f
=10
4g}
{8f
8f
8e-
8f
=11
4.g
4r}
{8a-
=12
4a-
8g
8f
8e-
8f
=13
4.g
8e-
8r}
{8a-
=14
4a-
8g
8f
8e-
8f
=15
4.g
8e-
8r}
{8e-
=16
4e-
8f
8f
8e-
8f
=17
4g}
{8f
4f
8e-
=18
[4.e-
8e-]
8r}
{8g
=19
[4.g
4g]
8e-
=20
4d
8d
8d
8e-
8f
=21
4e-
8e-
8e-
8r}
{8g
=22
4g
8f
4f
8e-
=23
[4.e-
8e-]
8r}
{8g
=24
[4.b-
8b-]
8a-
8f
=25
4.e-
4r}
==
!!!AGN: Staende -, Jaeger - Lied
!!!ONB: ESAC (Essen Associative Code) Database: FINK
!!!AMT: compound duple
!!!AIN: vox
!!!EED: Helmut Schaffrath
!!!EEV: 1.0
*-
